X:0063
M:6/8
L:1/8
Q:3/8=90
K:E Minor
e |dBG  GdB |AFD  DBA|G>FE FDB,|G3 F2:|
   dBG  GdB |AFD  DBA|G>FE FDB,|G3 F2:|

